public/logos/18_eu/14.svg

<svg xmlns="http://www.w3.org/2000/svg" viewBox="0 0 38 38"  fill-rule="nonzero" stroke-linejoin="round" stroke-miterlimit="2" xmlns:v="https://vecta.io/nano"><path d="M36.72 18.72c0-9.875-8.125-18-18-18s-18 8.125-18 18 8.125 18 18 18 18-8.125 18-18" fill="#202020"/><path d="M26.23 21.14l.23-9.49a35.46 35.46 0 0 0-2.62 4.16c-1.01 1.725-1.924 3.505-2.74 5.33l2.42.06 2.71-.06zm0 2.34l-7 .06-.06-.37-.17-.83c.996-2.249 2.108-4.445 3.33-6.58a60.55 60.55 0 0 1 4-6.19l3.56-.71.31.28-.2 4.08-.2 7.92h2.57l.08.2v2.17l-.06.11c-.83-.08-1.68-.11-2.57-.11v.66c-.075.905-.007 1.816.2 2.7.733.368 1.551.537 2.37.49l.14.08v1l-.14.09-4.56-.15h-1.85l-3.08.12-.12-.12v-1.05l.12-.12c.886-.015 1.771-.082 2.65-.2a.77.77 0 0 0 .51-.48 19.56 19.56 0 0 0 .17-3.05zm-19.78 5l-.14-.17v-.83l.14-.17a19.91 19.91 0 0 0 3-.37.63.63 0 0 0 .37-.34 10.39 10.39 0 0 0 .26-2.74l.11-7.12-.08-4.54c-.08-.29-.12-.25-.26-.25-.14.008-.276.046-.4.11l-3.83 1.73-.2-.12c-.049-.563-.142-1.122-.28-1.67l.11-.23A83.83 83.83 0 0 0 14 8.86l.37.23c-.15 1.28-.23 3.05-.29 5.27L14 22.43a26.33 26.33 0 0 0 .17 4c.036.197.147.373.31.49a11.22 11.22 0 0 0 2.85.34l.14.17v.83l-.14.17h-1.74c-1.74 0-2.93-.06-3.53-.06l-5.61.1v.01zm-163.19-11.29c-.05 2.194.084 4.388.4 6.56.113 1.057.518 2.061 1.17 2.9a2 2 0 0 0 1.45.6c.852.04 1.646-.444 2-1.22.57-1 .82-3 .82-5.87.1-2.666-.159-5.333-.77-7.93-.4-1.37-1.14-2-2.25-2-.884-.022-1.701.481-2.08 1.28-.54.88-.79 2.79-.79 5.67l.05.01zm-3.5 1.81c-.091-2.074.179-4.149.8-6.13a6.62 6.62 0 0 1 2.31-3.17c1.065-.694 2.319-1.043 3.59-1a5.65 5.65 0 0 1 3.33.88 5.51 5.51 0 0 1 2 2.79 18.88 18.88 0 0 1 .68 5.85c.095 2.113-.186 4.226-.83 6.24a6.6 6.6 0 0 1-2.25 3.25 5.73 5.73 0 0 1-3.47 1.05c-1.21.032-2.4-.318-3.4-1a5.51 5.51 0 0 1-2.08-2.85 18.72 18.72 0 0 1-.68-5.91zm-13.31 9.46l-.14-.17v-.83l.14-.17a19.91 19.91 0 0 0 3-.37.63.63 0 0 0 .37-.34 10.39 10.39 0 0 0 .26-2.74l.11-7.12-.08-4.54c-.08-.29-.12-.25-.26-.25-.14.008-.276.046-.4.11l-3.82 1.74-.2-.12c-.048-.567-.142-1.128-.28-1.68l.11-.23c2.951-.807 5.855-1.775 8.7-2.9l.37.23c-.15 1.28-.23 3.05-.29 5.27l-.08 8.07a26.33 26.33 0 0 0 .17 4c.036.197.147.373.31.49a11.22 11.22 0 0 0 2.85.34l.14.17v.83l-.14.17h-1.74c-1.74 0-2.93-.06-3.53-.06l-5.57.11v-.01z" fill="#fff"/></svg>

<?xml version="1.0" encoding="UTF-8" standalone="no"?>
<!DOCTYPE svg PUBLIC "-//W3C//DTD SVG 1.1//EN" "http://www.w3.org/Graphics/SVG/1.1/DTD/svg11.dtd">
<svg width="100%" height="100%" viewBox="0 0 38 38" version="1.1" xmlns="http://www.w3.org/2000/svg" xmlns:xlink="http://www.w3.org/1999/xlink" xml:space="preserve" xmlns:serif="http://www.serif.com/" style="fill-rule:evenodd;clip-rule:evenodd;stroke-linejoin:round;stroke-miterlimit:2;">
    <path d="M36.72,18.72C36.72,8.845 28.595,0.72 18.72,0.72C8.845,0.72 0.72,8.845 0.72,18.72C0.72,28.595 8.845,36.72 18.72,36.72C28.595,36.72 36.72,28.595 36.72,18.72" style="fill:rgb(32,32,32);fill-rule:nonzero;"/>
    <path d="M26.23,21.14L26.46,11.65C25.492,12.974 24.616,14.364 23.84,15.81C22.83,17.535 21.916,19.315 21.1,21.14C22.1,21.14 22.87,21.2 23.52,21.2L26.23,21.14ZM26.23,23.48C23.55,23.48 21.23,23.48 19.23,23.54L19.17,23.17L19,22.34C19.996,20.091 21.108,17.895 22.33,15.76C23.537,13.617 24.872,11.55 26.33,9.57C27.33,9.4 28.46,9.17 29.89,8.86L30.2,9.14C30.12,10.45 30.06,11.82 30,13.22L29.8,21.14L32.37,21.14L32.45,21.34L32.45,23.51L32.39,23.62C31.56,23.54 30.71,23.51 29.82,23.51L29.82,24.17C29.745,25.075 29.813,25.986 30.02,26.87C30.753,27.238 31.571,27.407 32.39,27.36L32.53,27.44L32.53,28.44L32.39,28.53C30.62,28.44 29.08,28.38 27.83,28.38L25.98,28.38L22.9,28.5L22.78,28.38L22.78,27.33L22.9,27.21C23.786,27.195 24.671,27.128 25.55,27.01C25.787,26.941 25.977,26.762 26.06,26.53C26.196,25.519 26.253,24.5 26.23,23.48ZM6.45,28.48L6.31,28.31L6.31,27.48L6.45,27.31C7.458,27.263 8.461,27.139 9.45,26.94C9.615,26.883 9.749,26.76 9.82,26.6C10.028,25.702 10.115,24.781 10.08,23.86C10.17,21.18 10.19,18.79 10.19,16.74C10.19,14 10.19,12.49 10.11,12.2C10.03,11.91 9.99,11.95 9.85,11.95C9.71,11.958 9.574,11.996 9.45,12.06L5.62,13.79L5.42,13.67C5.371,13.107 5.278,12.548 5.14,12L5.25,11.77C8.218,10.961 11.139,9.99 14,8.86L14.37,9.09C14.22,10.37 14.14,12.14 14.08,14.36C14.02,16.58 14,19.26 14,22.43C13.955,23.766 14.012,25.103 14.17,26.43C14.206,26.627 14.317,26.803 14.48,26.92C15.412,27.155 16.369,27.269 17.33,27.26L17.47,27.43L17.47,28.26L17.33,28.43L15.59,28.43C13.85,28.43 12.66,28.37 12.06,28.37C10.3,28.38 8.45,28.41 6.45,28.47L6.45,28.48ZM-156.74,17.19C-156.79,19.384 -156.656,21.578 -156.34,23.75C-156.227,24.807 -155.822,25.811 -155.17,26.65C-154.789,27.039 -154.265,27.256 -153.72,27.25C-152.868,27.29 -152.074,26.806 -151.72,26.03C-151.15,25.03 -150.9,23.03 -150.9,20.16C-150.8,17.494 -151.059,14.827 -151.67,12.23C-152.07,10.86 -152.81,10.23 -153.92,10.23C-154.804,10.208 -155.621,10.711 -156,11.51C-156.54,12.39 -156.79,14.3 -156.79,17.18L-156.74,17.19ZM-160.24,19C-160.331,16.926 -160.061,14.851 -159.44,12.87C-159.008,11.604 -158.202,10.499 -157.13,9.7C-156.065,9.006 -154.811,8.657 -153.54,8.7C-152.366,8.64 -151.201,8.947 -150.21,9.58C-149.263,10.273 -148.563,11.251 -148.21,12.37C-147.679,14.272 -147.449,16.246 -147.53,18.22C-147.435,20.333 -147.716,22.446 -148.36,24.46C-148.76,25.748 -149.546,26.882 -150.61,27.71C-151.622,28.426 -152.84,28.795 -154.08,28.76C-155.29,28.792 -156.48,28.442 -157.48,27.76C-158.467,27.064 -159.198,26.062 -159.56,24.91C-160.1,22.989 -160.33,20.994 -160.24,19ZM-173.55,28.46L-173.69,28.29L-173.69,27.46L-173.55,27.29C-172.542,27.243 -171.539,27.119 -170.55,26.92C-170.385,26.863 -170.251,26.74 -170.18,26.58C-169.972,25.682 -169.885,24.761 -169.92,23.84C-169.83,21.16 -169.81,18.77 -169.81,16.72C-169.81,13.98 -169.81,12.47 -169.89,12.18C-169.97,11.89 -170.01,11.93 -170.15,11.93C-170.29,11.938 -170.426,11.976 -170.55,12.04L-174.37,13.78L-174.57,13.66C-174.618,13.093 -174.712,12.532 -174.85,11.98L-174.74,11.75C-171.789,10.943 -168.885,9.975 -166.04,8.85L-165.67,9.08C-165.82,10.36 -165.9,12.13 -165.96,14.35C-166.02,16.57 -166.04,19.25 -166.04,22.42C-166.085,23.756 -166.028,25.093 -165.87,26.42C-165.834,26.617 -165.723,26.793 -165.56,26.91C-164.628,27.145 -163.671,27.259 -162.71,27.25L-162.57,27.42L-162.57,28.25L-162.71,28.42L-164.45,28.42C-166.19,28.42 -167.38,28.36 -167.98,28.36C-169.7,28.38 -171.55,28.41 -173.55,28.47L-173.55,28.46Z" style="fill:white;fill-rule:nonzero;"/>
</svg>
